!!!!SEGMENT: pl-wumfc--r266--001_paderewski-ignacy-jan--tatra-album-allegro-con-brio.krn
!!!cenid: 18xx:3153
!!!COM: Paderewski, Ignacy Jan
!!!COM-rismid: pe30029943
!!!CDT: 1860/11/18-1941/06/29
!!!CNT: Polish
!!!GTL: Tatra Album
!!!OTL: Allegro con brio
!!!PDT:
!!!AGN:
!!!SMS-siglum: PL-Wumfc
!!!SMS-shelfmark: R266
!!!SMS-shelfwork: 001 G
!!!SMS-variant:
!!!SMS-altvar:
!!!NIFC-rismid: 1001156226
!!!URL-scan: http://repozytorium.nifc.pl/skany/pl-wumfc--r266
!!!ONB-nifc: UWAGA: zbiór zawiera utwory na 4 ręce numerowane I-VI
!!!OMD: Allegro con brio
!!!key:
**kern	**kern	**dynam	**kern	**kern	**dynam
*part4	*part3	*part3	*part2	*part1	*part1
*staff4	*staff3	*	*staff2	*staff1	*
*Iempty	*Iempty	*	*Iempty	*Iempty	*
*I"Clavier	*I"Clavier	*	*I"Clavier	*I"Clavier	*
*I'pf	*I'pf	*	*I'pf	*I'pf	*
*clefF4	*clefF4	*	*clefG2	*clefG2	*
*k[f#c#]	*k[f#c#]	*	*k[f#c#]	*k[f#c#]	*
*D:	*D:	*	*D:	*D:	*
*M2/4	*M2/4	*	*M2/4	*M2/4	*
=1	=1	=1	=1	=1	=1
!	!	!	!	!LO:TX:t=P:problem:dolne caudy-różnie	!
!	!LO:TX:a:t=Allegro con brio.	!	!	!LO:TX:a:t=Allegro con brio.	!
2DD\ 2DDD\	4r	f	8dd/L 8d^>/	8ddd\L 8ff#^\	f
.	.	.	8a'/J	8aa'\J	.
.	4A/ 4E/ 4AA^>/	.	(16a^\LL	(16aa\LL 16ee^\	.
.	.	.	16b\	16bb\	.
.	.	.	16a\	16aa\	.
.	.	.	16g\JJ)	16gg\JJ)	.
=2	=2	=2	=2	=2	=2
2DD\ 2DDD\	4r	.	8f#\L	8ff#'\L	.
.	.	.	8g\J	8gg'\J	.
*	*	*	*	*	*^
!	!	!	!	!	!LO:DY:a	!
.	4A/ 4E/ 4AA^>/	.	4a\	4aa\ 4ee\	sf	sf
*	*	*	*	*	*v	*v
=3	=3	=3	=3	=3	=3
2DD\ 2DDD\	4r	.	8dd/L 8d^>/	8ddd\L 8ff#^\	.
.	.	.	8a'/J	8aa'\J	.
.	4A/ 4E/ 4AA^>/	.	(16a^\LL	(16aa\LL 16ee^\	.
.	.	.	16b\	16bb\	.
.	.	.	16a\	16aa\	.
.	.	.	16g\JJ)	16gg\JJ)	.
=4	=4	=4	=4	=4	=4
2DD\ 2DDD\	4r	f	8a\L 8f#\	8ff#\L	.
.	.	.	8e\J	8ee\J 8g\	.
.	4A/ 4F#/ 4D/ 4AA^>/	.	4d^\	4dd\ 4f#^\	.
=5	=5	=5	=5	=5	=5
2DD\ 2DDD\	4r	.	8dd/L 8d^>/	8ddd\L 8ff#^\	.
.	.	.	8a/J	8aa'\J	.
.	4A/ 4E/ 4AA^>/	.	(16a^\LL	(16aa\LL 16ee^\	.
.	.	.	16b\	16bb\	.
.	.	.	16a\	16aa\	.
.	.	.	16g\JJ)	16gg\JJ)	.
=6	=6	=6	=6	=6	=6
2DD\ 2DDD\	4r	.	8f#'\L	8ff#'\L	.
.	.	.	8g'\J	8gg'\J	.
*	*	*	*	*	*^
!	!	!	!	!	!LO:DY:a	!
.	4A/ 4E/ 4AA^>/	.	4a\	4aa\ 4ee\	sf	sf
*	*	*	*	*	*v	*v
!LO:LB:g=original	!	!	!LO:LB:g=original	!	!
=7	=7	=7	=7	=7	=7
2DD\ 2DDD\	4r	.	8dd/L 8d^/	8ddd/L 8ff#/	sf
.	.	.	8a/J	8aa/J	.
.	4A/ 4E/ 4AA^>/	.	(16a^\LL	(>16aa/LL 16ee^/	.
.	.	.	16b\	16bb/	.
.	.	.	16a\	16aa/	.
.	.	.	16g\JJ)	16gg/JJ)	.
=8	=8	=8	=8	=8	=8
2DD\ 2DDD\	4r	.	8a/L 8f#'/	8ff#'\L	.
.	.	.	8e'/J	8ee\J 8g'\	.
.	4A/ 4F#/ 4D/ 4AA^>/	.	4d^>/	4dd\ 4f#^\	.
=9	=9	=9	=9	=9	=9
4BB\ 4BBB\	4B/ 4F#/ 4D/	f	8f#/L 8d'/	8dd'\L	.
.	.	.	8e'/J	8ee'\J	<
4FF#\ 4FFF#\	4c#/ 4A/ 4F#/ 4C#^/	.	8f#^>/L	8ff#\L 8cc#^\	.
.	.	.	8e/J	8ee\J	.
!!linebreak:original
=10	=10	=10	=10	=10	=10
4BB\ 4BBB\	4B/ 4F#/ 4D/	.	(>16f#^>/LL	16ff#\LL 16dd^\	.
.	.	.	16e/	(16ee\	.
.	.	.	16f#/	16ff#\	.
.	.	.	16g/JJ)	16gg\JJ)	.
4FF#\ 4FFF#^\	4c#/ 4A/ 4F#/ 4C#^>/	.	8a^>/L	8aa\L 8cc#^\	.
.	.	.	8g'/J	8gg'\J	[
=11	=11	=11	=11	=11	=11
4BB\ 4BBB\	4B/ 4F#/ 4D/	.	8f#/L	8ff#\L 8dd'\	.
.	.	.	8a/J	8aa'\J	.
*	*	*	*	*	*^
!	!	!	!	!	!LO:DY:a	!
4EE\ 4EEE\	4e/ 4B/ 4G/ 4E/	.	8a^/L	8aa\L 8ee\ 8b\	sf	sf
*	*	*	*	*	*v	*v
.	.	.	(16a/L	(16aa\L	.
.	.	.	16g/JJ)	16gg\JJ)	.
=12	=12	=12	=12	=12	=12
4AA\ 4AAA\	4c#/ 4A/ 4G/ 4E/	.	8a/L 8f#/	8ff#\L	.
.	.	.	8g/J 8e/	8ee\J 8cc#\	.
*	*	*	*	*	*^
!	!	!	!	!	!LO:DY:a	!
4DD\ 4DDD\	4A/ 4F#/ 4D/	.	4f#/ 4d/	4dd\	sf	sf
*	*	*	*	*	*v	*v
!LO:LB:g=original	!	!LO:LB:g=original	!	!	!
=13	=13	=13	=13	=13	=13
4BB\ 4BBB\	4B/ 4F#/ 4D/	.	8f#/L 8d'>/	8dd'\L	.
.	.	.	8e'>/J	8ee'\J	<
4FF#\ 4FFF#\	4c#/ 4A/ 4F#/ 4C#/	.	8f#^>/L	8ff#\L 8cc#^\	.
.	.	.	8e/J	8ee\J	[[
=14	=14	=14	=14	=14	=14
4BB\ 4BBB\	4B/ 4F#/ 4D/	.	(>16f#/LL	(16ff#\LL 16dd\	.
.	.	.	16e/	16ee\	.
.	.	.	16f#/	16ff#\	.
.	.	.	16g/JJ)	16gg\JJ)	.
4FF#\ 4FFF#\	4c#/ 4A/ 4F#/ 4C#/	.	8a^>/L	8aa\L 8cc#^\	.
.	.	.	8g'>/J	8gg'>\J	.
=15	=15	=15	=15	=15	=15
4BB\ 4BBB\	4B/ 4F#/ 4D/	.	8f#'>/L	8ff#\L 8dd'\	.
.	.	.	8a'>/J	8aa'\J	.
*	*	*	*	*	*^
!	!	!	!	!	!LO:DY:a	!
4EE\ 4EEE\	4e/ 4B/ 4G/ 4E/	.	8a^>/L	8aa\L 8ee\ 8b\	sf	sf
*	*	*	*	*	*v	*v
.	.	.	(16a/L	(16aa\L	.
.	.	.	16g/JJ)	16gg\JJ)	.
=16	=16	=16	=16	=16	=16
!	!LO:TX:b:i:t=rit	!	!LO:TX:i:t=rit.	!	!
4AA\ 4AAA\	4c#/ 4A/ 4G/ 4E/	.	8a/L 8f#'/	8ff#'\L	.
.	.	.	8g/J 8e'/	8ee\J 8cc#'\	.
*	*	*	*	*	*^
!	!	!	!	!	!LO:DY:a	!
4DD\ 4DDD\	4A/ 4F#/ 4D;/	.	4f#/ 4d;/	4dd;\	sf	sf
*	*	*	*	*	*v	*v
=17||	=17||	=17||	=17||	=17||	=17||
*k[fncnb-e-]	*k[fncnb-e-]	*	*k[fncnb-e-]	*k[fncnb-e-]	*
!	!	!	!	!	!LO:DY:t=piano.
2BB-\ 2FF\ 2BBB-\	4r	p	4b-\	8bbb-\L 8ddd\ 8bb-^\	p
.	.	.	.	8ff'\J	.
.	4c/ 4F^>/	.	(16f^>/LL	(16ff^\LL 16cc\	.
.	.	.	16g/	16gg\	.
.	.	.	16f/	16ff\	.
.	.	.	16e-/JJ)	16ee-\JJ)	.
=18	=18	=18	=18	=18	=18
2BB-\ 2FF\ 2BBB-\	4r	.	8d'/L	8dd\L 8b-'\	.
.	.	.	8e-'/J	8ee-'\J	.
.	4c/ 4F^>/	.	4f^/	4ff\ 4a^\	.
!LO:LB:g=original	!	!	!LO:LB:g=original	!	!
=19	=19	=19	=19	=19	=19
2BB-\ 2FF\ 2BBB-\	4r	.	4b-\	8bbb-\L 8ddd\ 8bb-^\	.
.	.	.	.	8ff'\J	.
.	4c/ 4F^>/	.	(16f^>/LL	(16ff\LL 16cc^\	.
.	.	.	16g/	16gg\	.
.	.	.	16f/	16ff\	.
.	.	.	16e-/JJ)	16ee-\JJ)	.
=20	=20	=20	=20	=20	=20
2BB-\ 2FF\ 2BBB-\	4r	.	8d/L	8dd\L 8b-\	.
.	.	.	8e-/J	8cc\J 8a\	.
.	4B-/ 4F/ 4D^>/	.	4d^>/	4b-/ 4f^>/	.
=21	=21	=21	=21	=21	=21
2BB-\ 2FF\ 2BBB-\	4r	.	4b-\	8bbb-\L 8ddd\ 8bb-^\	.
.	.	.	.	8ff'\J	.
.	4c/ 4F^>/	.	(16f^/LL	(16ff\LL 16cc\	.
.	.	.	16g/	16gg\	.
.	.	.	16f/	16ff\	.
.	.	.	16e-/JJ)	16ee-\JJ)	.
=22	=22	=22	=22	=22	=22
2BB-\ 2FF\ 2BBB-\	4r	.	8d/L	8dd\L 8b-\	.
.	.	.	8e-/J	8ee-\J	.
.	4c/ 4F^>/	.	4f^/	4ff\ 4a^\	.
=23	=23	=23	=23	=23	=23
2BB-\ 2BBB-\	4r	.	4b-\	8bbb-\L 8ddd\ 8bb-^\	.
.	.	.	.	8ff'\J	.
.	4c/ 4F^>/	.	(16f^/LL	(16ff\LL 16cc\	.
.	.	.	16g/	16gg\	.
.	.	.	16f/	16ff\	.
.	.	.	16e-/JJ)	16ee-\JJ)	.
=24	=24	=24	=24	=24	=24
2BB-\ 2FF\ 2BBB-\	4r	.	8d/L	8dd\L 8b-\	.
.	.	.	8e-/J	8cc\J 8a\	.
.	4B-/ 4F/ 4D^>/	.	4d^/	4b-/ 4f^/	.
!LO:LB:g=original	!	!	!LO:LB:g=original	!	!
=25	=25	=25	=25	=25	=25
4FF\	4F\	<	8d/L 8B-/	8b-\L	<
.	.	.	8c/J	8cc\J	.
4FF#X\	4A\ 4F#X\	.	8d/L	8dd\L 8a^\	.
.	.	.	8c/J	8cc\J	[
=26	=26	=26	=26	=26	=26
*	*^	*	*	*	*
4GG\	2B-/	4G\	.	(>16d/LL	(16dd\LL 16b-^\	.
.	.	.	.	16c/	16cc\	.
.	.	.	.	16d/	16dd\	.
.	.	.	.	16e-/JJ)	16ee-\JJ)	.
[4GG#X\	.	[4F\	.	8f^>/L	8ff^\L	.
.	.	.	[[	8e-/J	8ee-\J	.
=27	=27	=27	=27	=27	=27	=27
4GG#\]	4Bn/	2F\]	.	8d/L	8dd'\L	.
.	.	.	.	8f/J	8ff'\J	.
4AA\	4c/	.	.	8f/L	8ff\L 8cc^\	f
.	.	.	.	(16f/L	(16ff\L	.
.	.	.	.	16e-/JJ)	16ee-\JJ)	.
*	*v	*v	*	*	*	*
=28	=28	=28	=28	=28	=28
4FF\	4A\ 4F\	.	8d/L	8dd'\L	.
.	.	.	8e-/J 8c/	8cc\J 8a\	.
4BBB-\	4B-\ 4D^<\	.	4d^/	4b-/ 4f^>/	.
=29	=29	=29	=29	=29	=29
(4GG\	(4B-\ 4D\	.	4d/	8b-'\L	.
.	.	.	.	8cc\J	.
4DD\)	4A\ 4F#X\)	.	8d^>/L	8dd\L 8a^\	.
.	.	.	8c/J	8cc\J	.
=30	=30	=30	=30	=30	=30
(4GG\	(4B-\ 4D\	.	(16d/LL	(16dd\LL 16b-\	.
.	.	.	16c/	16cc\	.
.	.	.	16d/	16dd\	.
.	.	.	16e-/JJ)	16ee-\JJ)	.
4CC\)	4G\ 4E-\)	.	8f/L	8ff\L 8cc^\	.
.	.	.	8e-/J	8ee-\J	.
!LO:LB:g=original	!	!	!LO:LB:g=original	!	!
=31	=31	=31	=31	=31	=31
2FF\	4B-/ 4F/ 4D/	.	8d'/L	8dd'\L	.
.	.	.	8f'/J	8ff'\J	.
.	4B-/ 4G-X/ 4E-/	.	8f^/L	8ff\L 8cc^\	.
.	.	.	(16f/L	(16ff\L	.
.	.	.	16e-/JJ)	16ee-\JJ)	.
=32	=32	=32	=32	=32	=32
4FFF\	4A/ 4F/ 4E-/	.	8d/L	8dd'\L	.
.	.	.	8e-/J 8c/	8cc\J 8a'\	.
4BBB-;\	4B-/ 4F/ 4D;/	sf	4d^>;/	4b-/ 4f^;/	.
=33||	=33||	=33||	=33||	=33||	=33||
*k[bnenf#c#]	*k[bnenf#c#]	*	*k[bnenf#c#]	*k[bnenf#c#]	*
!	!	!	!	!	!LO:DY:t=forte.
2DD\ 2DDD\	4r	.	8dd\L 8d'^\	8ddd\L 8ff#^\	f
.	.	.	8a\J	8aa\J	.
.	4A/ 4E/ 4AA/	.	(16a\LL	(16aa\LL 16ee\	.
.	.	.	16b\	16bb\	.
.	.	.	16a\	16aa\	.
.	.	.	16g\JJ)	16gg\JJ)	.
=34	=34	=34	=34	=34	=34
2DD\ 2DDD\	4r	.	8f#'\L	8ff#'\L	.
.	.	.	8g'\J	8gg'\J	.
.	4A/ 4E/ 4AA/	.	4a^\	4aa\ 4ee^\	.
=35	=35	=35	=35	=35	=35
2DD\ 2DDD\	4r	.	8dd\L 8d^\	8ddd\L 8ff#^\	.
.	.	.	8a\J	8aa\J	.
.	4A/ 4E/ 4AA/	.	(16a\LL	(16aa\LL 16ee^\	.
.	.	.	16b\	16bb\	.
.	.	.	16a\	16aa\	.
.	.	.	16g\JJ)	16gg\JJ)	.
=36	=36	=36	=36	=36	=36
2DD\ 2DDD\	4r	.	8a\L 8f#\	8ff#\L	.
.	.	.	8e\J	8ee\J 8g\	.
.	4A/ 4F#/ 4D/ 4AA/	.	4d^\	4dd\ 4f#^\	.
!LO:PB:g=original	!	!	!LO:PB:g=original	!	!
=37	=37	=37	=37	=37	=37
[2DD\ [2DDD\	4r	.	8dd\L 8d'^\	8ddd\L 8ff#^\	.
.	.	.	8a'\J	8aa'\J	.
.	(8e'\L	.	(16a^\LL	(16aa\LL 16ee^\	.
.	.	.	16b\	16bb\	.
.	8A'\J	.	16a\	16aa\	.
.	.	.	16g\JJ)	16gg\JJ)	.
=38	=38	=38	=38	=38	=38
2DD\] 2DDD\]	(8d\L 8A\	.	8f#'\L	8ff#'\L	.
.	8D\J)	.	8g'\J	8gg'\J	.
.	(8A\L 8E\	.	4a^\	4aa\ 4ee^\	.
.	8AA\J))	.	.	.	.
=39	=39	=39	=39	=39	=39
[2DD\ [2DDD\	4r	.	8dd\L 8d'^\	8ddd\L 8ff#'^\	.
.	.	.	8a'\J	8aa'\J	.
.	(8e'\L	.	(16a^\LL	(16aa\LL 16ee^\	.
.	.	.	16b\	16bb\	.
.	8A'\J	.	16a\	16aa\	.
.	.	.	16g\JJ)	16gg\JJ)	.
=40	=40	=40	=40	=40	=40
*	*8\right	*	*	*	*
2DD\] 2DDD\]	(8A\L 8E\	.	8a\L 8f#'\	8ff#'\L	.
.	8AA\J)	.	8e'\J	8ee\J 8g'\	.
*	*8\left	*	*	*	*
.	(8A\L 8D\	.	4d/	4dd\ 4f#^\	.
.	8BB^\J))	.	.	.	.
=41	=41	=41	=41	=41	=41
*	*^	*	*	*	*
[2AA\ [2DD^\	2A/	8D'\L	.	4r	4r	.
!	!LO:TX:b:i:t=marcato	!	!	!	!	!
.	.	8E'\J	.	.	.	.
*	*	*	*	*	*	*^
!	!	!	!	!	!	!LO:DY:a	!
.	.	8F#^>\L	.	(>[>4a/	([4aa\	sf	sf
*	*	*	*	*	*	*v	*v
.	.	8E\J	.	.	.	.
=42	=42	=42	=42	=42	=42	=42
!	!	!	!	!	!	!LO:DY:rj:t=forte
2AA\] 2DD\]	(16F#\LL	4ryy	<	4a/]	4aa\]	f
.	16E\	.	.	.	.	.
.	16F#\	.	.	.	.	.
.	16G\JJ)	.	.	.	.	.
.	4c#^/	8A\L	.	4e/	4ee\	.
.	.	8G\J	[[	.	.	.
!LO:LB:g=original	!	!	!	!LO:LB:g=original	!	!
=43	=43	=43	=43	=43	=43	=43
*^	*	*	*	*	*	*
[2AA\	[2DD\	4d/	8F#\L	.	4f#/	4ff#\	.
.	.	.	8A\J	.	.	.	.
.	.	4c#/	8A\L	f	4a/	4aa\	.
.	.	.	(16A\L	.	.	.	.
.	.	.	16G\JJ)	.	.	.	.
=44	=44	=44	=44	=44	=44	=44	=44
4AA/]	2DD\]	4d/	8F#\L	.	4b/	4bb\	.
.	.	.	8E\J	.	.	.	.
4ryy	.	4A\ 4AA\	4ryy	.	4cc#/)	4ccc#\)	.
*v	*v	*	*	*	*	*	*
*	*v	*v	*	*	*	*
=45	=45	=45	=45	=45	=45
2DD\	4A\ 4F#\ 4AA\	.	8dd'\L	8ddd'\L	f
.	.	.	8ee'\J	8eee'\J	.
.	[4a\ [4A\	sf	8ff#^\L	8fff#^\L	.
.	.	.	8ee'\J	8eee'\J	.
=46	=46	=46	=46	=46	=46
[2AA\ [2DD\	4a\] 4A\]	.	(16ff#\LL	(16fff#\LL	<
.	.	.	16ee\	16eee\	.
.	.	.	16ff#\	16fff#\	.
.	.	.	16gg\JJ)	16ggg\JJ)	[
.	4e\ 4c#\ 4E\	f	8aa'^\L	8aaa'^\L	.
.	.	.	8gg'\J	8ggg'\J	.
=47	=47	=47	=47	=47	=47
2AA\] 2DD\]	4f#\ 4d\ 4F#\	.	8ff#'\L	(8fff#\L	.
.	.	.	8aa'\J	8aaa\J)	.
.	4a\ 4c#\ 4A\	.	8aa^\L	8aaa^\L	.
.	.	.	(16aa\L	(16aaa\L	.
.	.	.	16gg\JJ)	16ggg\JJ)	.
=48	=48	=48	=48	=48	=48
4D\ 4DD\	4a\ 4f#\ 4A\	.	8ff#'\L	8fff#'\L	.
.	.	.	8aa'\J	8aaa'\J	<
*	*clefG2	*	*	*	*
4Cn\ 4CCn\	4b-X/ 4e/ 4B-X/	.	8aa^\L	8aaa^\L	.
.	.	.	(16aa\L	(16aaa\L	.
.	.	.	16gg\JJ)	16ggg\JJ)	.
!	!	!	!LO:LB:g=original	!	!
=49	=49	=49	=49	=49	=49
*	*clefG2	*	*	*	*
[2Fn\ [2FFn\	8a/L 8fn/ 8A'/	.	8ffn'\L	8fffn'\L	.
.	8b-X'/	.	8dd'\	8ddd'\	>
.	8a'/	.	8ccn'\	8cccn'\	.
.	8f'/J	.	8a'\J	8aa'\J	.
=50	=50	=50	=50	=50	=50
4F\] 4FF\]	8d'/L	.	8fn'/L	8ffn'\L	]
.	8cn'/J	.	8a'/J	8aa'\J	.
*	*clefF4	*	*	*	*
4Cn\ 4CCn\	4e\ 4B-X\ 4E\	.	8a^/L	8aa^\L	.
.	.	.	(16a/L	(16aa\L	.
.	.	.	16g/JJ)	16gg\JJ)	.
=51	=51	=51	=51	=51	=51
2FFn\	8cn\L 8A\ 8Fn'\	.	8fn'/L	8ffn'\L	.
.	8B-X'\	.	8d'/	8dd'\	>
.	8A'\	.	8cn'/	8ccn'\	.
.	8F'\J	.	8A'/J	8a'\J	]]
=52	=52	=52	=52	=52	=52
*	*4\right	*	*	*	*
4FF#\	4Fn\ 4C#\	.	8A/	8fn/L	.
.	.	.	8r	8a/J	.
*	*4\left	*	*	*	*
4BBB^\	4A\ 4F^\	.	4d/	8a^>/L	sf
.	.	.	.	(16g/L	.
.	.	.	.	16f/JJ)	.
=53	=53	=53	=53	=53	=53
[2EE\	2A\ 2E\	.	2cn/	(8d/L	<
.	.	.	.	8a/	.
.	.	.	.	8b/	.
.	.	.	.	8ccn/J)	.
=54	=54	=54	=54	=54	=54
2EE\]	(8E\L	<	2ccn/ 2a/	(4ee\	[
.	8A\	.	.	.	.
!	!	!	!	!LO:TX:b:i:t=ritardando	!
.	8B\	.	.	[4eee\	.
.	8cn\J	[[	.	.	.
=55	=55	=55	=55	=55	=55
!	!LO:TX:b:i:t=ralentando	!	!	!	!
2BBB\	2fn\ 2d\ 2A\)	.	4b/ 4a/	16eee\LL]	.
.	.	.	.	16ddd\	.
.	.	.	.	16bb\	.
.	.	.	.	16aa\JJ	.
.	.	.	4r	16ffn\LL	.
.	.	.	.	16dd\	.
.	.	.	.	16a\	.
.	.	>	.	16b\JJ)	.
=56	=56	=56	=56	=56	=56
2EE\	(4cn\ 4A\ 4E\	.	2e^>/	(8ccn\L	.
!	!	!	!	!LO:TX:b:i:t=poco	!
.	.	.	.	16dd\L	.
.	.	.	.	16cc#X\JJ	.
.	4B\ 4G#X\ 4E\)	.	.	8ee\L	.
.	.	]]	.	8g#X\J)	.
=57||	=57||	=57||	=57||	=57||	=57||
*k[fncn]	*k[fncn]	*	*k[]	*k[]	*
!LO:SIC:o:s:v:t=ukryte znaki	!LO:TX:b:i:t=espres.	!	!LO:SIC:o:s:v:t=ukryte znaki	!LO:TX:b:i:t=espres.	!
!	!LO:TX:a:t=poco Moderato	!	!	!LO:TX:a:t=poco Moderato.	!
2E\ 2C\ 2AA\	(8A\L	.	2r	(>8a/L	.
.	8f\J	.	.	8ff/J	.
.	4e\)	.	.	4ee/)	.
=58	=58	=58	=58	=58	=58
.	((16qqc\LL	.	.	(16qqcc/LL	.
.	16qqd\JJ	.	.	16qqdd/JJ	.
2F\	8c\L 8A\)	.	8a/	(8cc\L)	.
.	8B\J	.	8r	8b\J	.
.	4A\)	.	4r	4a/)	.
!LO:LB:g=original	!	!	!LO:LB:g=original	!	!
=59	=59	=59	=59	=59	=59
2E\ 2C\ 2AA\	(8A\L	.	2r	(8a\L	.
.	8f\J	.	.	8ff\J	<
.	4e\)	.	.	4ee\)	.
=60	=60	=60	=60	=60	=60
.	(<16qqc/LL	<	.	(16qqcc/LL	.
!	!LO:TX:b:i:t=legato.	!	!	!	!
.	16qqd/JJ	.	.	16qqdd/JJ	.
*4\right	*	*	*	*	*
(4A\ 4AA\	(4c\)	.	4r	4cc\	[
*8\right	*	*	*	*	*
8GG\L	8B\L 8G\	.	(>4e^>/	8b\L	.
8EE\J	8G\J 8E\	[	.	8g\J	.
*4\left	*	*	*	*	*
*8\left	*	*	*	*	*
=61	=61	=61	=61	=61	=61
2DD\)	2A\ 2D\)	.	2f^>/)	2a/)	.
=62	=62	=62	=62	=62	=62
2D\	(8A\L 8F\	<	[>2f/	(8a/L	<
.	16A\L	.	.	16a/L	<
.	16B\JJ	.	.	16b/JJ	.
.	(16qqA/LL	.	.	(16qqa/LL	.
.	16qqB/JJ	.	.	16qqb/JJ	.
.	8A\L)	.	.	8a/L)	.
.	8G\J	.	.	8g/J	.
=63	=63	=63	=63	=63	=63
4GG\	8A\L 8F\	[	4f/]	8a/L	[
.	8B\J	.	.	8b/J	.
4C\	4c\ 4G\ 4E\)	.	4e/	4cc\)	.
=64	=64	=64	=64	=64	=64
4F\ 4FF\	(8c\L 8A\	.	4a\	(8cc\L	.
.	16c\L	.	.	16cc\L	>
.	16d\JJ	.	.	16dd\JJ	.
4F\ 4D\	8c\L	.	4f/	8cc\L	.
.	8B\J	.	.	8b\J	.
=65	=65	=65	=65	=65	=65
4E\	4c\ 4A\	.	2e/	4a/	.
4EE\	4B\ 4G\	.	.	4g/	.
.	.	.	.	.	]
!LO:LB:g=original	!	!	!LO:LB:g=original	!	!
=66	=66	=66	=66	=66	=66
2E\ 2AA\	2c\ 2A\)	.	2e/	2a/)	.
=67	=67	=67	=67	=67	=67
!	!	!LO:DY:t=piano.	!	!	!
[2AA\	(8A\L	p	[>2a/	(2aa^\	.
.	8f\J	.	.	.	.
.	4e\)	.	.	.	.
=68	=68	=68	=68	=68	=68
.	(16qqc/LL	.	.	.	.
.	16qqd/JJ	.	.	.	.
2AA\]	(8c\L)	.	2a/]	2ee\)	.
.	8B\J	.	.	.	.
.	4A\)	.	.	.	.
=69	=69	=69	=69	=69	=69
(8AA\L	(8A\L	<	2a/	((<2aa^\	.
8D\J	8f\J	.	.	.	.
4C\)	4e\)	[	.	.	.
=70	=70	=70	=70	=70	=70
.	(16qqc/LL	<	.	.	.
.	16qqd/JJ	.	.	.	.
(4A\ 4AA\	(4c\)	.	4r	8a\L)	.
.	.	.	.	8cc\	<
8G\L	8B\L	.	(>8d/L	8dd\	.
8E\J	8G\J	.	8e/J	8ee\J	.
=71	=71	=71	=71	=71	=71
!	!	!	!	!	!LO:HP:b=2
2D\)	2A\)	.	8d/L	2ff\)	[ <
.	.	.	16e/L	.	.
.	.	.	16d/J	.	.
.	.	.	8a/	.	[
.	.	.	8g/J)	.	.
=72	=72	=72	=72	=72	=72
!	!	!	!LO:TX:i:t=poco cres.	!	!
4D\	(8A\L 8F\	.	(>4f/	(4ff\	.
.	16A\L	.	.	.	.
.	16B\JJ	.	.	.	.
.	(16qqA/LL	.	.	.	.
.	16qqB/JJ	.	.	.	.
4GG\	8A\L 8F\)	.	8g/L	8gg\L	.
.	8G\J	.	8d/J	8dd\J	.
!LO:LB:g=original	!	!	!LO:LB:g=original	!	!
=73	=73	=73	=73	=73	=73
(4GG\ 4GGG\	8A\L 8F\	.	4f/	4ff\	.
.	8B\J	.	.	.	.
4C\ 4CC\)	4c\ 4G\ 4E\)	.	4e/)	8ee\L	.
.	.	.	.	8cc\J)	.
=74	=74	=74	=74	=74	=74
!	!LO:TX:a:i:t=stringeri	!	!	!	!
4F\ 4FF\	(8c\L 8A\	.	(4a/	(4aa\	.
.	16c\L	<	.	.	.
.	16d\JJ	.	.	.	.
!	!	!	!	!LO:TX:b:i:t=stringeri	!
4D\ 4DD\	8c\L 8A\ 8F\	.	8a/L	8aa\L	.
.	8B\J	.	8b/J	8bb\J	.
=75	=75	=75	=75	=75	=75
*^	*	*	*	*	*
*	*	*^	*	*	*	*
*	*	*	*8\right	*	*	*	*
4ryy	2EE\	4B/	8A 8EL	.	4b/	4bb\	.
.	.	.	16G#L	.	.	.	.
.	.	.	16F#JJ	.	.	.	.
*	*	*	*8\left	*	*	*	*
4E/	.	8e\L 8B\ 8E\	4ryy	[	4ee\)	4eee\)	.
.	.	8g#X\J 8e\ 8B\)	.	.	.	.	.
*	*	*v	*v	*	*	*	*
*v	*v	*	*	*	*	*
!	!LO:CL:ed	!	!	!	!
*	*clefG2	*	*	*	*
=76	=76	=76	=76	=76	=76
*	*^	*	*	*	*
!	!	!	!LO:DY:a	!	!	!
4F\ 4C\ 4FF\	(4a/ 4A^/	8e\L	f	(4ee\	(4eee\	f
.	.	8d\J	.	.	.	.
!	!LO:TX:ai:t=con forza	!	!	!	!	!
4F\ 4C\ 4FF\	4a/ 4A^/	8c\L	.	8ee\L	8eee\L	.
.	.	8d\J	.	8ff\J	8fff\J	.
=77	=77	=77	=77	=77	=77	=77
!	!	!	!LO:HP:a	!	!	!
4C\ 4CC\	4g/	8e\L 8G\	<	4ee\	4eee\	.
.	.	16d\L	.	.	.	.
.	.	16c\JJ	.	.	.	.
4E\ 4EE\	8a/L)	4c\ 4G\	[	4cc\)	4ccc\)	.
.	8g/J	.	.	.	.	.
=78	=78	=78	=78	=78	=78	=78
*^	*	*	*	*	*	*
!	!	!	!	!LO:DY:a	!	!	!
4D\ 4DD\	4ryy	(4f/ 4F<^/	8d\L	f	(4dd\	(4ddd\	.
.	.	.	8c\	.	.	.	.
4D\ 4DD\	4F/	4f^/	8B\	.	8dd\L	8ddd\L	ff
.	.	.	8c\J	.	8ee\J	8eee\J	.
*	*	*v	*v	*	*	*	*
=79	=79	=79	=79	=79	=79	=79
!	!	!	!LO:HP:a	!	!	!
8d/L 8F/	2GG#X\ 2GGG#X\	4f/	<	4dd\	4ddd\	.
16c/L	.	.	.	.	.	.
16B/JJ	.	.	.	.	.	.
4d/ 4F/	.	8g/L	[	4b\)	4bb\)	.
.	.	8f/J)	.	.	.	.
*v	*v	*	*	*	*	*
!	!LO:CL:ed	!	!	!	!
*	*clefF4	*	*	*	*
!LO:PB:g=original	!	!	!LO:PB:g=original	!	!
=80	=80	=80	=80	=80	=80
4AA\ 4AAA\	4e/ 4c/ 4E/	f	(8cc\L	(8ccc\L	f
.	.	.	8dd\	8ddd\	.
4GG\ 4GGG\	4e/ 4c/ 4E/	.	8ee\	8eee\	.
.	.	.	8b\J	8bb\J	.
=81	=81	=81	=81	=81	=81
4FF\ 4FFF\	4A\ 4F\ 4C\	.	8a\L	8aa\L	.
.	.	.	16b\L	16bb\L	.
.	.	.	16cc\J	16ccc\J	.
4EE\ 4EEE\	4c\ 4G\ 4C\	.	8ee\	8eee\	.
.	.	.	8e\J	8ee\J	.
=82	=82	=82	=82	=82	=82
(8EE\ 8EEE^\	8B\ 8G#X\ 8BB^\	.	2ee\)	2eee\)	.
8C\L	(8c\L	ff	.	.	.
8E\	8e\	.	.	.	.
!	!LO:TX:b:i:t=rallentando.	!	!	!	!
8C\J	8c\J	.	.	.	.
=83	=83	=83	=83	=83	=83
!	!	!	!	!LO:TX:b:i:t=rallentando	!
8BB\)	8B\)	.	2r	2r	.
!	!LO:TX:b:i:t=pesante	!	!	!	!
16GG\LL	16Gn\LL	.	.	.	.
16FF\J	16F\J	.	.	.	.
8EE\	8E\	.	.	.	.
8CC\J	8C\J	.	.	.	.
=84	=84	=84	=84	=84	=84
4AAA\	(8A\L 8AA\	.	2r	2r	.
.	8f\J 8d\ 8F\	f	.	.	.
4AA\	4e\ 4c\ 4E\)	.	.	.	.
=85	=85	=85	=85	=85	=85
!	!	!	!	!LO:TX:a:i:t=Poco moderato.	!
.	(<16qqc/LL	.	.	.	.
.	16qqd/JJ	.	.	.	.
4AAA\	(8c\L 8E\)	.	8aa^\L	8aaa^\L	mf
.	8B\J 8E\ 8D\	.	8ee'\J	8eee'\J	.
4AA\	4A\ 4E\ 4C\)	.	(16ee\LL	(16eee\LL	.
.	.	.	16ff\	16fff\	.
.	.	.	16ee\	16eee\	.
.	.	.	16dd\JJ)	16ddd\JJ)	.
!LO:LB:g=original	!	!	!LO:LB:g=original	!	!
=86	=86	=86	=86	=86	=86
4AAA\	(8A\L 8AA\	<	8cc'\L	8ccc'\L	.
.	8f\J 8d\ 8F\	.	8dd'\J	8ddd'\J	.
4AA\	4e\ 4c\ 4E\)	[	4ee^\	4eee^\	.
=87	=87	=87	=87	=87	=87
.	(<16qqc/LL	.	.	.	.
.	16qqd/JJ	.	.	.	.
(4AA\ 4AAA\	(4c\ 4E\)	.	8gg^\L	8ggg^\L	.
.	.	.	8ee'\J	8eee'\J	.
8GG\L 8GGG\	8B\L 8E\ 8BB\	.	(16ee\LL	(16eee\LL	.
.	.	.	16ff\	16fff\	.
8EE\J 8EEE\	8G\J 8E\ 8GG\	>	16ee\	16eee\	.
.	.	.	16dd\JJ)	16ddd\JJ)	.
=88	=88	=88	=88	=88	=88
4FF\ 4FFF\	4A\ 4F\ 4AA\	.	8cc'\L	8ccc'\L	.
.	.	.	8dd'\J	8ddd'\J	.
4GG\ 4CC\)	4G\ 4E\ 4C\)	]	4e^>/	4eee\ 4ee^\	.
=89	=89	=89	=89	=89	=89
4FF\	(8A\L 8F\	p	2r	8r	.
.	16A\L	.	.	((8a/	p
!	!LO:TX:b:i:t=espr.	!	!	!	!
.	16B\JJ	.	.	.	.
.	(16qqA/LL	.	.	.	.
!	!	!	!	!LO:TX:a:i:t=grazioso.	!
.	16qqB/JJ	.	.	.	.
4DD\	8A\L 8F\)	.	.	4aa^\)	.
.	8G\J	.	.	.	.
=90	=90	=90	=90	=90	=90
4GG\	8A\L 8F\	<	2r	16gg'\LL	.
.	.	.	.	16ff'\	.
.	8B\J	.	.	16ee'\	.
.	.	[	.	16dd'\JJ	.
4CC\	4c\ 4G\ 4E\)	.	.	16cc'\LL	.
.	.	.	.	16dd'\J	.
.	.	.	.	8ee^\J)	.
=91	=91	=91	=91	=91	=91
4F\ 4FF\	(8c\L 8A\	>	2r	8r	.
.	16c\L	.	.	(8a/	.
.	16d\JJ	.	.	.	.
4D\	8c\L 8A\ 8F\	.	.	4ff^\	.
.	8B\J	]	.	.	.
!LO:LB:g=original	!	!	!LO:LB:g=original	!	!
=92	=92	=92	=92	=92	=92
4E\	4B\ 4A\)	.	4r	8ee\L	.
.	.	.	.	16b'\L	.
.	.	.	.	16dd'\JJ	.
!	!LO:TX:b:i:t=rit.	!	!	!LO:TX:b:i:t=rit.	!
4EE\	4d\ 4G#X\ 4E\	.	8r	16ee'\LL	.
.	.	.	.	16dd'\	.
.	.	.	8e^>/	16cc#X'\	.
.	.	.	.	16b'\JJ)	.
=93	=93	=93	=93	=93	=93
!	!	!	!	!LO:TX:b:i:t=un poccetino piu molto	!
4AA\ 4AAA\	8r	.	8r	16a'\LL	.
.	.	.	.	16b'\J	.
!	!LO:TX:b:i:t=un poccetino piu molto.	!	!	!	!
.	8c#X\ 8A\ 8E^\	.	8e^>/	8cc#X^\J	.
4AA\ 4AAA\	8r	.	8r	16b'\LL	.
.	.	.	.	16cc#'\J	.
.	8d\ 8B\ 8A\ 8Fn^\	.	8f^>/	8dd^\J	.
=94	=94	=94	=94	=94	=94
4AA\ 4AAA\	8r	.	8r	(16cc#X\LL	.
.	.	.	.	16b\)	.
.	8c#X\ 8A\ 8E^\	.	8e^>/	16a'\	.
.	.	.	.	16cc#'\JJ	.
4AA\ 4AAA\	8r	.	8r	16b'\LL	.
.	.	.	.	16cc#'\J	.
.	8d\ 8B\ 8A\ 8F^\	.	8f^>/	8dd^\J	.
=95	=95	=95	=95	=95	=95
4AA\ 4AAA\	8r	.	8r	16cc#X'\LL	.
.	.	.	.	16dd'\J	.
!	!	!	!	!LO:TX:t=P:problem:łamanie linii w takcie	!
.	8c#X\ 8A\ 8E^\	.	8e/	8ee^\J	.
!	!	!	!LO:LB:g=original	!	!
4AA\ 4AAA\	8r	.	8r	16dd'\LL	.
.	.	.	.	16ee'\J	.
.	8d\ 8B-X\ 8G#X\ 8D^\	.	8f^>/	8ff^\J	.
!LO:LB:g=original	!	!	!	!	!
=96	=96	=96	=96	=96	=96
4AA\ 4AAA\	8r	.	8r	(16ee\LL	.
.	.	.	.	16dd\)	.
.	8c#X\ 8A\ 8E\	.	8e^>/	16cc#X'\	.
.	.	.	.	16ee'\JJ	.
4AA\ 4AAA\	8r	.	8r	16dd'\LL	.
.	.	.	.	16ee'\J	.
.	8d\ 8B-X\ 8G#X\ 8D\	.	8f^>/	8ff^\J	.
=97	=97	=97	=97	=97	=97
4AA\ 4AAA\	8r	.	8e/L	16ee'\LL	<
.	.	.	.	16gg#X'\J	.
.	8c#X\ 8A\ 8E\	.	8a/J	8aa^\J	.
4AA\ 4AAA\	8r	.	16e/LL	16ee'\LL	.
.	.	.	16g#X/J	16gg#'\J	[ <
!LO:LB:g=original	!	!	!	!	!
.	8c#\ 8A\ 8E\	.	8a^/J	8aa^\J	.
=98	=98	=98	=98	=98	=98
4r	16E'\LL	.	16e/LL	16ee'\LL	.
.	16G#X'\	.	16g#X/	16gg#X'\	f
.	16A'\	.	16a/	16aa'\	.
!	!	!	!	!LO:TX:t=P:problem:łamanie linii w takcie	!
.	16E'\JJ	f	16e/JJ	16ee'\JJ	.
!	!	!	!LO:LB:g=original	!	!
16GG#X'\LL	16G#'\LL	.	16g#X/LL	16gg#X'\LL	.
16AA'\	16A'\	.	16a/	16aa'\	.
16EE'\	16E'\	.	16e/	16ee'\	.
16GG#'\JJ	16G#'\JJ	.	16g#/JJ	16gg#'\JJ	.
=99	=99	=99	=99	=99	=99
!	!	!	!	!LO:TX:b:i:t=ritar.	!
2AA\ 2AAA^\	16A'\LL	.	2aTT/	2aaTT\	ff
.	16E'\	.	.	.	.
.	16A'\	.	.	.	.
.	16E'\JJ	.	.	.	.
!	!LO:TX:b:i:t=ritar.	!	!	!	!
.	16A'\LL	.	.	.	.
.	16E'\	.	.	.	.
.	16A'\	.	.	.	.
.	16E'\JJ	.	.	.	.
=100||	=100||	=100||	=100||	=100||	=100||
*k[f#c#]	*k[f#c#]	*	*k[f#c#]	*k[f#c#]	*
*M2/4	*M2/4	*	*M2/4	*M2/4	*
!LO:TX:b:i:t=con8.	!LO:TX:a:i:t=Tempo 1°	!	!	!LO:TX:a:t=Tempo 1°	!
[2DD\	8D\L	f	8dd\L 8d^\	8ddd\L 8ff#^\	ff
.	8A\	.	8a\J	8aa\J	.
!	!LO:TX:a:i:t=staccato	!	!	!	!
.	8E\	.	(16a\LL	(16aa^\LL 16ee\	.
.	.	.	16b\	16bb\	.
.	8A\J	.	16a\	16aa\	.
.	.	.	16g\JJ)	16gg\JJ)	.
=101	=101	=101	=101	=101	=101
2DD\]	8F#\L	.	8f#/L	8ff#'\L	.
.	8A\	.	8g/J	8gg'\J	.
.	8E\	.	4a^>/	4aa\ 4ee^\	.
.	8A\J	.	.	.	.
=102	=102	=102	=102	=102	=102
!LO:TX:b:i:t=con8.	!	!	!	!	!
[2DD\	8D\L	.	8dd\L 8d^\	8ddd\L 8ff#^\	.
.	8A\	.	8a\J	8aa\J	.
.	8E\	.	(16a^\LL	(16aa\LL 16ee^\	.
.	.	.	16b\	16bb\	.
.	8A\J	.	16a\	16aa\	.
.	.	.	16g\JJ)	16gg\JJ)	.
!LO:LB:g=original	!	!	!LO:LB:g=original	!	!
=103	=103	=103	=103	=103	=103
2DD\]	8F#\L	.	8a\L 8f#\	8ff#'\L	.
.	8A\	.	8e\J	8ee\J 8g'\	.
.	8D^\	.	4d\	4dd\ 4f#^\	.
.	8A\J	.	.	.	.
=104	=104	=104	=104	=104	=104
4BB\	(4d\ 4D\	pp	8dd\L 8d'^\	(8ddd\L 8ff#^\	pp
.	.	.	8a'\J	8aa\J)	.
4FF#\	4A\ 4F#\	.	(16a^\LL	(16aa\LL 16ee^\	.
.	.	.	16b\	16bb\	.
.	.	.	16a\	16aa\	.
.	.	.	16g\JJ)	16gg\JJ)	.
=105	=105	=105	=105	=105	=105
4GG\	4B\ 4BB\	.	8f#'\L	8ff#'\L	.
.	.	.	8g'\J	8gg'\J	.
4DD\	4F#\ 4D\	.	4a^\	4aa^\	.
=106	=106	=106	=106	=106	=106
4FF#\	4A\ 4AA\	.	8dd\L 8d^\	8ddd\L 8ff#'^\	.
.	.	.	8a\J	8aa'\J	.
4DD\	4F#\ 4D\	.	(16a^\LL	(16aa^\LL	.
.	.	.	16b\	16bb\	.
.	.	.	16a\	16aa\	.
.	.	.	16g\JJ)	16gg\JJ)	.
=107	=107	=107	=107	=107	=107
4EE\	4G\ 4GG\	.	8f#\L	8ff#\L	.
.	.	.	8e\J	8ee\J 8g\	.
4BBB\	4F#\ 4BB\)	.	4d\	4dd\ 4f#^\	.
=108	=108	=108	=108	=108	=108
*tremolo	*	*	*	*	*
!LO:TX:t=P:problem:sekstola oznaczona 6.:global	!	!	!	!	!
!LO:TX:b:i:t=Tremol.	!	!	!	!LO:TX:a:i:t=agitato.	!
!LO:TX:a:t=6	!	!	!	!	!
24FF#\LL 24FFF#\	4d\ 4F#\ 4D\	<	4r	8dd\L	<
24FF#\ 24FFF#\	.	.	.	.	.
24FF#\ 24FFF#\	.	.	.	.	.
24FF#\ 24FFF#\	.	.	.	8ee\J	.
24FF#\ 24FFF#\	.	.	.	.	.
24FF#\JJ 24FFF#\	.	.	.	.	.
!LO:TX:a:t=6.	!	!	!	!	!
24FF#\LL 24FFF#\	4c#\ 4F#\ 4C#\	[	8f#/L	8ff#\L	.
24FF#\ 24FFF#\	.	.	.	.	.
24FF#\ 24FFF#\	.	.	.	.	.
24FF#\ 24FFF#\	.	.	8e/J	8ee\J	.
24FF#\ 24FFF#\	.	.	.	.	.
24FF#\JJ 24FFF#\	.	.	.	.	.
!LO:PB:g=original	!	!	!LO:PB:g=original	!	!
=109	=109	=109	=109	=109	=109
!LO:TX:b:i:t=Tremol.	!LO:TX:b:i:t=agitato.	!	!	!	!
!LO:TX:a:t=6	!	!	!	!	!
24FF#\LL 24FFF#\	(4cn\ 4F#\ 4Cn\	.	(16f#/LL	(16ff#\LL	<
24FF#\ 24FFF#\	.	.	.	.	.
.	.	.	16e/	16ee\	.
24FF#\ 24FFF#\	.	.	.	.	.
24FF#\ 24FFF#\	.	.	16f#/	16ff#\	.
24FF#\ 24FFF#\	.	.	.	.	.
.	.	.	16g/JJ)	16gg\JJ)	.
24FF#\JJ 24FFF#\	.	.	.	.	.
!LO:TX:a:t=6.	!	!	!	!	!
24GG\LL 24GGG\	4B\ 4G\ 4BB\	.	8a'>/L	8aa'\L	.
24GG\ 24GGG\	.	.	.	.	.
24GG\ 24GGG\	.	.	.	.	.
24GG\ 24GGG\	.	.	8g'>/J	8gg'\J	.
24GG\ 24GGG\	.	.	.	.	.
24GG\JJ 24GGG\	.	.	.	.	[
=110	=110	=110	=110	=110	=110
*8ba	*	*	*	*	*
!LO:TX:a:t=6	!	!	!	!	!
24CC#\LL 24CCC#\	4B\ 4G\ 4BB\	<	8f#/L	8ff#\L	.
24CC#\ 24CCC#\	.	.	.	.	.
24CC#\ 24CCC#\	.	.	.	.	.
24CC#\ 24CCC#\	.	.	8a/J	8aa\J	.
24CC#\ 24CCC#\	.	.	.	.	.
24CC#\JJ 24CCC#\	.	.	.	.	f
!LO:TX:a:t=6	!	!	!	!	!
24CC#\LL 24CCC#\	4e\ 4B\ 4G\ 4E\	.	8a^>/L	8aa\L 8ee\ 8b^\	.
24CC#\ 24CCC#\	.	.	.	.	.
24CC#\ 24CCC#\	.	.	.	.	.
24CC#\ 24CCC#\	.	.	(16a/L	(16aa\L	.
24CC#\ 24CCC#\	.	.	.	.	.
.	.	.	16g/JJ)	16gg\JJ)	.
24CC#\JJ 24CCC#\	.	.	.	.	.
*X8ba	*	*	*	*	*
=111	=111	=111	=111	=111	=111
*	*^	*	*	*	*
24FF#\LL 24FFF#\	8d/L	4A#X\ 4F#\ 4E\	.	8f#/L	8ff#\L	.
24FF#\ 24FFF#\	.	.	.	.	.	.
24FF#\ 24FFF#\	.	.	.	.	.	.
24FF#\ 24FFF#\	8c#/J	.	.	8e/J	8ee\J	.
24FF#\ 24FFF#\	.	.	.	.	.	.
24FF#\JJ 24FFF#\	.	.	.	.	.	.
*8ba	*	*	*	*	*	*
4BBB\ 4BBBB^\	4B/ 4F#/ 4D^/)	4ryy	.	4f#/ 4d^>/	4dd^\	.
*	*v	*v	*	*	*	*
*X8ba	*	*	*	*	*
=112	=112	=112	=112	=112	=112
2BB\ 2BBB\	(4B\ 4F#\ 4D\	<	8d/L	8dd\L	<
.	.	.	8e/J	8ee\J	.
.	4d\ 4B\ 4F#\ 4D\	.	8f#/L	8ff#\L	.
.	.	.	8e/J	8ee\J	.
=113	=113	=113	=113	=113	=113
4BB\ 4BBB\	4d#X\ 4B\ 4A\ 4D#X\	.	(16f#/LL	(16ff#\LL	.
.	.	.	16e/	16ee\	.
.	.	.	16f#/	16ff#\	.
.	.	[	16g/JJ)	16gg\JJ)	.
!	!	!LO:TX:b:t=cres-cen-do:ext2=cd:problem:dynamics with extention lines	!	!	!
4E\ 4EE\	4e\ 4B\ 4G\ 4E\	<	8a/L	8aa\L	[
.	.	.	8g/J	8gg\J	.
=114	=114	=114	=114	=114	=114
2EE\ 2EEE\	4e\ 4B\ 4G\ 4E\	.	8f#/L	8ff#\L	.
.	.	.	8a/J	8aa\J	<
.	4d\ 4B-X\ 4G\ 4E\	.	8a^>/L	8aa\L 8ee\ 8b-X^\	.
.	.	.	(16a/L	(16aa\L	.
.	.	[	16g/JJ)	16gg\JJ)	.
!LO:LB:g=original	!	!	!LO:LB:g=original	!	!
=115	=115	=115	=115	=115	=115
!	!LO:TX:b:i:t=rit.	!	!LO:TX:a:i:t=rit.	!	!
4AA\ 4AAA\	4c#\ 4A\ 4G\ 4E\	.	8a/L 8f#/	8ff#\L	.
.	.	.	8g/J 8e/	8ee\J	f
4DD\ 4DDD;\	4A\ 4F#\ 4D;\)	.	4f#/ 4d^>;/	4dd^;\	.
=116||	=116||	=116||	=116||	=116||	=116||
*k[fncnb-e-]	*k[fncnb-e-]	*	*k[fncnb-e-]	*k[fncnb-e-]	*
*	*clefG2	*	*	*	*
[2BB-\ [2FF\ [2BBB-\	4r	p	8b-\L	8bbb-\ 8ddd\ 8bb-^\	p
.	.	.	8ff^\J	8r	.
.	8b-^>/L	.	4r	(16ff^\LL	.
.	.	.	.	16gg\	.
.	8f/J	.	.	16ff\	.
.	.	.	.	16ee-\JJ)	.
=117	=117	=117	=117	=117	=117
2BB-\] 2FF\] 2BBB-\]	(16f^>/LL	.	2r	8dd\L	.
.	16g/	.	.	.	.
.	16f/	.	.	8ee-\J	.
.	16e-/JJ)	.	.	.	.
.	8d'/L	.	.	4ff^\	.
.	8e-'/J	.	.	.	.
=118	=118	=118	=118	=118	=118
[2BB-\ [2FF\ [2BBB-\	4f^>/	.	8b-\L	8bbb-\ 8ddd\ 8bb-^\	.
.	.	.	8ff\J	8r	.
.	8b-^/L	.	4r	(16ff^\LL	.
.	.	.	.	16gg\	.
.	8f/J	.	.	16ff\	.
.	.	.	.	16ee-\JJ)	.
=119	=119	=119	=119	=119	=119
2BB-\] 2FF\] 2BBB-\]	(16f^>/LL	.	2r	8dd\L	.
.	16g/	.	.	.	.
.	16f/	.	.	8cc\J	.
.	16e-/JJ)	.	.	.	.
.	8d/L	.	.	4b-^\	.
.	8c/J	.	.	.	.
=120	=120	=120	=120	=120	=120
[2BB-\ [2FF\ [2BBB-\	4B-^>/	.	8b-\L	8bbb-\ 8ddd\ 8bb-^\	.
.	.	.	8ff\J	8r	.
.	8b-^>/L	.	4r	(16ff^\LL	.
.	.	.	.	16gg\	.
.	8f/J	.	.	16ff\	.
.	.	.	.	16ee-\JJ)	.
!LO:LB:g=original	!	!	!LO:LB:g=original	!	!
=121	=121	=121	=121	=121	=121
2BB-\] 2FF\] 2BBB-\]	(16f^>/LL	.	2r	8dd\L	.
.	16g/	.	.	.	.
.	16f/	.	.	8ee-\J	.
.	16e-/JJ)	.	.	.	.
.	8d/L	.	.	4ff^\	.
.	8e-/J	.	.	.	.
=122	=122	=122	=122	=122	=122
[2BB-\ [2FF\ [2BBB-\	4f^>/	.	8b-\L	8bbb-\ 8ddd\ 8bb-^\	.
.	.	.	8ff\J	8r	.
.	8b-^>/L	.	4r	(16ff^\LL	.
.	.	.	.	16gg\	.
.	8f/J	.	.	16ff\	.
.	.	.	.	16ee-\JJ)	.
=123	=123	=123	=123	=123	=123
2BB-\] 2FF\] 2BBB-\]	(16f^>/LL	.	2r	8dd\L	.
.	16g/	.	.	.	.
.	16f/	.	.	8cc\J	.
.	16e-/JJ)	.	.	.	.
.	8d/L	.	.	4b-^\	.
.	8c/J	.	.	.	.
=124	=124	=124	=124	=124	=124
*	*clefF4	*	*	*	*
4GG\ 4GGG\	4B-\ 4G\ 4D\	f	4d/	8b-\L	f
.	.	.	.	8cc\J	.
4DD\ 4DDD\	4A\ 4F\ 4D\	.	8d/L	8dd\L 8a^\	.
.	.	.	8c/J	8cc\J	<
=125	=125	=125	=125	=125	=125
4GG\ 4GGG\	4B-\ 4G\ 4D\	.	(16d/LL	(16dd\LL 16a^\	.
.	.	.	16c/	16cc\	.
.	.	.	16d/	16dd\	.
.	.	.	16e-/JJ)	16ee-\JJ)	.
4DD\ 4DDD\	4A\ 4F\ 4D\	.	8f'/L	8ff'\L	.
.	.	.	8e-'/J	8ee-'\J	.
=126	=126	=126	=126	=126	=126
4GG\ 4GGG\	4B-\ 4G\ 4D\	.	(8d/L	(8dd\L	[
.	.	.	8f/J)	8ff\J)	.
4CC\ 4CCC\	4c\ 4G\ 4E-\	.	8f^/L	8ff\L 8cc\ 8g^\	.
.	.	.	(16f/L	(16ff\L	.
.	.	.	16e-/JJ)	16ee-\JJ)	.
!LO:LB:g=original	!	!	!LO:LB:g=original	!	!
=127	=127	=127	=127	=127	=127
4FF\ 4FFF\	4A\ 4F\ 4C\	.	8d/L	8dd\L	.
.	.	.	8e-/J 8c/	8cc\J 8a\	.
4BB-\ 4BBB-\	4B-\ 4F\ 4D\	.	4d^>/	4b-/ 4f^>/	.
=128	=128	=128	=128	=128	=128
4GG\	(8G^\L	.	4d/	8b-\L	f <
.	8B-\J	.	.	8cc\J	.
4DD\	8F#X^\L	.	8d/L	8dd\L 8a\	.
.	8A\J	.	8c/J	8cc\J	.
=129	=129	=129	=129	=129	=129
4GG\	8Fn^\L	.	(16d/LL	(16dd\LL 16b-^\	.
.	.	.	16c/	16cc\	.
.	8B-\J	.	16d/	16dd\	.
.	.	.	16e-/JJ)	16ee-\JJ)	[
4CC\	8G\L 8E-^\	.	8f/L	8ff\L 8cc\	.
.	8c\J	.	8e-/J	8ee-\J	.
=130	=130	=130	=130	=130	=130
2FF\	8F\L 8D^\	.	8d/L	8dd\L	.
.	8B-\J	.	8f/J	8ff\J	.
.	8G-X\L 8E-\	.	8f^/L	8ff\L 8cc^>\	.
.	8c\J	.	(16f/L	(16ff\L	.
.	.	.	16e-/JJ)	16ee-\JJ)	.
=131	=131	=131	=131	=131	=131
4FFF\	4A\ 4F\ 4C^<\	.	8d/L	8dd\L	.
.	.	.	8e-/J 8c/	8cc\J 8a\	.
4BBB-;\	4B-\ 4F\ 4D^<;\)	.	4d^>/	4b-\ 4f^\	.
=132||	=132||	=132||	=132||	=132||	=132||
*k[bnenf#c#]	*k[bnenf#c#]	*	*k[bnenf#c#]	*k[bnenf#c#]	*
!	!LO:TX:a:i:t=Pocopiu molto.	!	!	!LO:TX:a:i:t=Pocopiu molto.	!
2DD\ 2DDD\	4r	.	8dd\L 8d^\	8ddd\L 8ff#^\	f
.	.	.	8a\J	8aa\J	.
.	4A\ 4E\ 4AA\	.	(16a^\LL	(16aa\LL 16ee^\	.
.	.	.	16b\	16bb\	.
.	.	.	16a\	16aa\	.
.	.	.	16g\JJ)	16gg\JJ)	.
!LO:LB:g=original	!	!	!LO:LB:g=original	!	!
=133	=133	=133	=133	=133	=133
2DD\ 2DDD\	4r	.	8f#/L	8ff#\L	.
.	.	.	8g/J	8gg\J	.
.	4A\ 4E\ 4AA\	.	4a^>/	4aa\ 4ee^\	.
=134	=134	=134	=134	=134	=134
2DD\ 2DDD\	4r	.	8dd\L 8d^\	8ddd\L 8ff#^\	.
.	.	.	8a\J	8aa\J	.
.	4A\ 4E\ 4AA\	.	(16a^\LL	(16aa\LL 16ee^\	.
.	.	.	16b\	16bb\	.
.	.	.	16a\	16aa\	.
.	.	.	16g\JJ)	16gg\JJ)	.
=135	=135	=135	=135	=135	=135
2DD\ 2DDD\	4r	.	8a/L 8f#/	8ff#\L	.
.	.	.	8e/J	8ee\J 8g\	.
.	4A\ 4E\ 4AA^\	.	4d^>/	4dd\ 4f#^\	.
=136	=136	=136	=136	=136	=136
[2DD\ [2DDD\	8r	.	8dd\L 8d\	(8ddd\L 8ff#^\	f
.	8AA'\L	<	8a\J	8aa\J)	.
.	8BB'\	.	(16a^\LL	(16aa\LL 16ee\	.
.	.	.	16b\	16bb\	.
.	8C#'\J	.	16a\	16aa\	.
.	.	.	16g\JJ)	16gg\JJ)	.
=137	=137	=137	=137	=137	=137
2DD\] 2DDD\]	8D'\L	.	8f#\L	8ff#\L	.
.	8E'\	.	8g\J	8gg\J	.
.	8F#'\	.	4a^\	4aa\ 4cc#^\	.
.	8G'\J	.	.	.	.
=138	=138	=138	=138	=138	=138
[2DD\ [2DDD\	8A'\L	.	8dd^\L 8d\	(8ddd\L 8ff#^\	.
.	8B'\	.	8a\J	8aa\J)	.
.	8cn'\	.	(16a^\LL	(16aa^\LL 16ee\	.
.	.	.	16b\	16bb\	.
.	8c#X'\J	.	16a\	16aa\	.
.	.	[	16g\JJ)	16gg\JJ)	.
!LO:LB:g=original	!	!	!LO:LB:g=original	!	!
=139	=139	=139	=139	=139	=139
2DD\] 2DDD\]	8d'\L	.	8f#/L	8ff#\L	.
.	8e'\	<	8g/J	8gg\J	.
.	8f#'\	.	4a^/	4aa^\	.
.	(16g\L	.	.	.	.
.	16e\JJ)	.	.	.	.
=140	=140	=140	=140	=140	=140
4DD\	8d'\L	.	2r	[<2aaTT\	<
.	8e'\J	.	.	.	.
4D\	8f#\L 8F#^\	.	.	.	.
.	8e\J	.	.	.	.
=141	=141	=141	=141	=141	=141
*	*^	*	*	*	*
4DD\	(16f#/LL	4cn\	f	2r	2aaTT\_<	.
.	16e/	.	.	.	.	.
.	16f#/	.	.	.	.	.
.	16g/JJ)	.	.	.	.	.
4D\	8a^/L	4d\ 4B\	.	.	.	.
.	8g/J	.	.	.	.	.
=142	=142	=142	=142	=142	=142	=142
4DD\	8f#'/L	4cn\	.	2r	2aaTT\_<	.
.	8a'/J	.	.	.	.	.
4D\	8a^/L	4d\ 4B\	.	.	.	.
.	(<16a/L	.	.	.	.	.
.	16g/JJ)	.	.	.	.	.
=143	=143	=143	=143	=143	=143	=143
4DD\	8f#'/L	4cn\	.	2r	2aaTT\]	.
.	8a'/J	.	f	.	.	.
4D\	8a^/L	4d\ 4B\	.	.	.	.
.	(<16a/L	.	.	.	.	.
.	16g/JJ)	.	.	.	.	[
*	*v	*v	*	*	*	*
=144	=144	=144	=144	=144	=144
2DD\	4f#\ 4d\ 4F#\	.	8dd\L	8ddd\L	.
.	.	.	8ee\J	8eee\J	ff
.	4e\ 4B-X\ 4G\	.	8ff#\L	8fff#\L	.
.	.	.	8ee\J	8eee\J	.
!LO:PB:g=original	!	!	!LO:PB:g=original	!	!
=145	=145	=145	=145	=145	=145
[<2DD\	(4d\ 4A\ 4F#\	<	(16ff#\LL	(16fff#\LL	<
.	.	.	16ee\	16eee\	.
.	.	.	16ff#\	16fff#\	.
.	.	.	16gg\JJ)	16ggg\JJ)	.
.	4c#\ 4G\ 4E\	.	8aa\L	8aaa\L	.
.	.	.	8gg\J	8ggg\J	.
=146	=146	=146	=146	=146	=146
2DD\_<	4cn\ 4F#\ 4E-X\	.	8ff#\L	8fff#\L	.
.	.	.	8aa\J	8aaa\J	.
.	4B\ 4G\ 4D\	.	8aa^\L	8aaa^\L	[
.	.	.	(16aa\L	(16aaa\L	.
.	.	.	16gg\JJ)	16ggg\JJ)	.
=147	=147	=147	=147	=147	=147
4DD\]	4B-X\ 4G\ 4C#\	.	8ff#\L	8fff#\L	.
.	.	[	8aa\J	8aaa\J	.
4AA\ 4AAA\	4A\ 4G\ 4C#\)	.	8aa^\L	8aaa^\L	.
.	.	.	(16aa\L	(16aaa\L	.
.	.	.	16ee\JJ)	16eee\JJ)	.
=148	=148	=148	=148	=148	=148
!	!LO:TX:a:i:t=Molto accelerando.	!	!	!LO:TX:a:i:t=Molto accelerando.	!
2DD\ 2DDD\	4A\ 4F#\ 4C#\	.	8dd\L 8d^\	8ddd\L 8ff#^\	.
.	.	.	8a\J	8aa\J	ff
.	.	f	.	.	.
.	4A\ 4E\ 4AA^\	.	(16a\LL	(16aa\LL 16ee^\	.
.	.	.	16b\	16bb\	.
.	.	.	16a\	16aa\	.
.	.	.	16g\JJ)	16gg\JJ)	.
=149	=149	=149	=149	=149	=149
2DD\ 2DDD\	4A\ 4F#\ 4C#\	.	8dd\L 8d^\	8ddd\L 8ff#^\	.
.	.	.	8a\J	8aa\J	.
.	4A\ 4E\ 4AA^\	.	(16a^\LL	(16aa\LL 16ee^\	.
.	.	.	16b\	16bb\	.
.	.	.	16a\	16aa\	.
.	.	.	16g\JJ)	16gg\JJ)	.
=150	=150	=150	=150	=150	=150
2DD\ 2DDD\	4A\ 4F#\ 4C#\	.	8dd\L 8d^\	8ddd\L 8ff#^\	.
.	.	.	8a\J	8aa\J	.
.	4A\ 4F#\ 4D\ 4AA\	.	(16a^\LL	(16aa\LL 16ee^\	.
.	.	.	16b\	16bb\	ff
.	.	.	16a\	16aa\	.
.	.	.	16f#\JJ)	16gg\JJ)	.
!LO:LB:g=original	!	!	!LO:LB:g=original	!	!
=151	=151	=151	=151	=151	=151
2DD\ 2DDD\	8A\L 8F#\ 8D^\	.	4d/	8dd^\L	.
.	8A'\J	.	.	8a\J	.
!	!	!LO:DY:t=forte	!	!	!
.	(16A^\LL	f	4r	(16a^>/LL	.
.	16B\	.	.	16b/	.
.	16A\	.	.	16a/	.
.	16F#\JJ)	.	.	16f#/JJ)	.
=152	=152	=152	=152	=152	=152
[2DD\ [2DDD\	8D'\L	.	4r	8d'/L	<
.	8F#'\	.	.	8f#'/	.
.	8A'\	.	8r	8a'/	.
.	8F#'\J	.	8d/	8dd'/J	.
=153	=153	=153	=153	=153	=153
2DD\_ 2DDD\_	8D'\L	.	8f#/L	8ff#'\L	.
.	8F#'\	.	8a/	8aa'\	.
.	8D'\	.	8dd/	8ddd'\	[
.	8AA'\J	.	8ff#/J	8fff#'\J	.
=154	=154	=154	=154	=154	=154
*	*	*	*	*8va	*
!	!	!LO:DY:a	!	!	!
2DD\] 2DDD\]	2F#\	sf	2aa\	2aaa\	sf
=155	=155	=155	=155	=155	=155
2AA\ 2AAA\	2e\ 2c#\ 2G\ 2E\	ff	2aa\ 2ee\ 2a\	2cccc#\ 2ggg\ 2ccc#\	ff
=156	=156	=156	=156	=156	=156
2DD\ 2DDD^;\	2d\ 2A\ 2F#\ 2D^;\	.	2aa\ 2dd\ 2a;\	2dddd\ 2fff#\ 2ddd;\	.
*	*	*	*	*X8va	*
==	==	==	==	==	==
*-	*-	*-	*-	*-	*-
!!!system-decoration: {(s1,s2)},{(s3,s4)}
!!!RDF**kern: > = above
!!!RDF**kern: < = below
!!!RDF**dynam: p = p.
!!!RDF**dynam: f = f.
!!!RDF**dynam: mf = mf.
!!!RDF**dynam: < = cres.
!!!AIN: 4 empty
!!!ENC: Anastazja Marusiak
!!!END: 2021-11-07
!!!ENC: Leszek Kubiak
!!!END: 2021-11-15
